X:1
T:Title
%%score { 1 | 2 }
L:1/8
Q:1/4=100
M:2/4
K:D
V:1 treble nm="Grand Piano"
V:2 bass 
V:1
 D2 D2 | E2 D2 | G2 F2 | B2 [FA]2 | [Dd]2 [Ec]2 | [B,FB]2 [B,FA]2 | [B,EG]2 [A,CA]2 | [A,DF]4 | %8
w: Walter~Parratt *||||||||
 [^A,CF]2 [A,CF]2 | [B,B]2 [B,DF]2 | [F,DF]2 [F,CE]2 | [F,CE]2 [F,B,D]2 | %12
w: ||||
 [^G,B,E]2[K:treble] [B,DE]2 | [A,CA]2 [A,E]2 | [A,CE]2 [^G,B,D]2 | [A,C]4 | [B,DG]2 [A,CF]2 | %17
w: |||||
 [G,B,E]2 D2 | B2 A2 | G2 F2 | G2 A2 | B2 A2 | B2 c2 | [Fd]4 |] %24
w: |||||||
V:2
 [D,F,A,]2 [D,F,A,]2 | [D,G,C]2 [D,F,]2 | [B,D]2[K:treble] [A,D]2 | [G,DG]2[K:bass] [D,D]2 | %4
 [B,,F,]2 [C,F,]2 | D,2 D,2 | E,2 A,,2 | D,4 | F,2 E,2 | D,2 B,,2 | ^G,,2 ^A,,2 | B,,2 B,,2 | %12
 E,2 E,2 | A,,2 C,2 | E,2 E,2 | A,,4 | A,,2 A,,2 | A,,2 [A,,F,A,]2 | [G,A,C]2 [F,B,D]2 | %19
 [E,CE]2 [D,D]2 | [B,D]2 [A,DF]2 | [G,DG]2 [F,D]2 | [G,DA]2 [A,G]2 | [D,A,]4 |] %24

